X: 6015
T: Canyon Moonrise
R: waltz
M: 3/4
K: Eminor
B,>D|"E"E4 ^G>A|"G"B6|"C"B4 A>B|"F"G2 E2>D2|
"Am"E4 G>E|"Bm"D2B,2D2|"Cmaj7"E6-|"A/B"E6|
"E"E4 ^G>A|"G"B6|"C"B4 A>B|"F"G2 E2>D2|
"Am"E4 G>E|"B7+9"D2B,2D2|"E5"E6-|"E5"E6|
"Cmaj7"e4 g>a|"D/C"b2a2f2|"Em"a2g2f2|"C"(e6|
"G"e4) d>B|"Em" A2G2g2|"Csus2"(e6|e4) g>a|
"D/C"b2a2f2|"Em"a2g2>f2|"Cmaj7"g2f2d2|"G"B4B>d|
"C"e4d>B|"F"A2G2g2|"F#m7"(f6|"B7+9"f4)f>d|
"Am7"e2d2A2|"G"B6|"Cmaj7"e2d2>B2|"Fmaj7"A2<G2D2|
"Am7"E4G>E|"B7+9"D2B,2D2|"E5"E6-|E6||

